X:165
T:165  Old Roger in new coat  (Pe)
M: 9/8
L: 1/8
S: variant on Sir Roger De Coverley?
Z:Chris Pollington 2008
K:D
D| D2d dcB AGF| G2E EFE F2E|D2d dcB edc |d2B AFD D2:|
|:B| AGF G2A AGF |G2E EFE F2B|AGF GAB ABc| d2B AFD D2:|
|:A|def efg afd| e2E EFE F2A|def efg ABc |d2B AFD D2:|
|:f|aaf g2e faf |e2E EFE F2f| aaf g2e faf| d2B AFD D2:|





